;FLAVOR:Marlin
;TIME:15587
;Filament used: 6.80247m
;Layer height: 0.1
;MINX:67.9
;MINY:57.401
;MINZ:0.36
;MAXX:138.848
;MAXY:147.6
;MAXZ:19.79
;Generated with Cura_SteamEngine main
M140 S50
M105
M190 S50
M104 S210
M105
M109 S210
M82 ;absolute extrusion mode
G28 ;Home
G1 Z15.0 F6000 ;Move the platform down 15mm
;Prime the extruder
G92 E0
G1 F200 E3
G92 E0
G92 E0
G92 E0
G1 F2700 E-3.5
;LAYER_COUNT:188
;LAYER:-8
M107
G0 F5400 X70.751 Y64.014 Z0.36
;TYPE:SUPPORT-INTERFACE
G1 F2700 E0
G1 F675 X70.193 Y64.866 E0.12195
G1 X69.612 Y65.914 E0.26542
G1 X69 Y67.253 E0.4417
G1 X68.639 Y68.251 E0.56878
G1 X68.321 Y69.415 E0.71326
G1 X68.057 Y70.771 E0.87867
G1 X67.948 Y71.754 E0.99709
G1 X67.9 Y72.903 E1.13479
G1 X67.904 Y132.158 E8.22978
G1 X67.96 Y133.423 E8.38139
G1 X68.097 Y134.487 E8.50984
G1 X68.342 Y135.668 E8.65426
G1 X68.721 Y136.991 E8.81905
G1 X69.062 Y137.891 E8.93428
G1 X69.617 Y139.098 E9.09335
G1 X70.362 Y140.406 E9.27359
G1 X70.969 Y141.29 E9.40199
G1 X71.583 Y142.057 E9.51963
G1 X72.463 Y143.016 E9.67547
G1 X73.618 Y144.067 E9.86245
G1 X74.53 Y144.759 E9.99953
G1 X75.357 Y145.301 E10.11792
G1 X76.403 Y145.882 E10.26119
G1 X77.752 Y146.499 E10.43881
G1 X78.751 Y146.861 E10.56604
G1 X79.915 Y147.179 E10.71052
G1 X81.271 Y147.443 E10.87593
G1 X82.254 Y147.552 E10.99435
G1 X83.385 Y147.599 E11.12989
G1 X121.534 Y147.6 E15.69772
G1 X122.923 Y147.54 E15.86419
G1 X123.987 Y147.403 E15.99264
G1 X125.168 Y147.158 E16.13706
G1 X126.491 Y146.779 E16.30184
G1 X127.391 Y146.438 E16.41708
G1 X128.569 Y145.896 E16.57234
G1 X129.905 Y145.139 E16.75621
G1 X130.796 Y144.526 E16.8857
G1 X131.557 Y143.917 E17.00241
G1 X132.516 Y143.037 E17.15825
G1 X133.571 Y141.877 E17.346
G1 X134.259 Y140.97 E17.48231
G1 X134.807 Y140.134 E17.602
G1 X135.388 Y139.086 E17.74547
G1 X136.002 Y137.743 E17.92229
G1 X136.365 Y136.74 E18.05001
G1 X136.679 Y135.586 E18.19321
G1 X136.943 Y134.229 E18.35874
G1 X137.052 Y133.246 E18.47716
G1 X137.1 Y132.095 E18.61509
G1 X137.101 Y127.635 E19.14912
G1 X137.161 Y126.854 E19.24291
G1 X137.301 Y126.202 E19.32276
G1 X137.529 Y125.554 E19.40501
G1 X137.886 Y124.716 E19.51407
G1 X138.226 Y123.717 E19.64043
G1 X138.512 Y122.601 E19.77837
G1 X138.69 Y121.635 E19.89599
G1 X138.811 Y120.497 E20.03301
G1 X138.848 Y119.496 E20.15295
G1 X138.848 Y114.435 E20.75894
G1 X138.84 Y113.817 E20.83294
G1 X138.759 Y112.657 E20.97217
G1 X138.615 Y111.688 E21.08947
G1 X138.369 Y110.562 E21.22748
G1 X138.065 Y109.549 E21.35411
G1 X137.71 Y108.625 E21.47263
G1 X137.597 Y108.364 E21.50669
G1 X137.266 Y107.438 E21.62444
G1 X137.14 Y106.758 E21.70724
G1 X137.1 Y106.128 E21.78283
G1 X137.1 Y72.966 E25.75353
G1 X137.04 Y71.58 E25.91964
G1 X136.903 Y70.507 E26.04916
G1 X136.658 Y69.332 E26.19288
G1 X136.278 Y68.005 E26.35815
G1 X135.879 Y66.967 E26.4913
G1 X135.394 Y65.926 E26.62881
G1 X134.636 Y64.59 E26.81274
G1 X134.026 Y63.704 E26.94153
G1 X133.417 Y62.943 E27.05824
G1 X132.523 Y61.969 E27.21654
G1 X131.377 Y60.929 E27.40184
G1 X130.47 Y60.24 E27.53822
G1 X129.644 Y59.699 E27.65645
G1 X128.587 Y59.113 E27.80116
G1 X127.259 Y58.505 E27.97604
G1 X126.328 Y58.168 E28.0946
G1 X125.084 Y57.821 E28.24923
G1 X123.732 Y57.557 E28.41418
G1 X122.748 Y57.448 E28.53272
G1 X121.615 Y57.401 E28.6685
G1 X83.466 Y57.401 E33.23632
G1 X82.077 Y57.46 E33.40279
G1 X81.013 Y57.597 E33.53124
G1 X79.832 Y57.842 E33.67566
G1 X78.509 Y58.221 E33.84044
G1 X77.609 Y58.562 E33.95568
G1 X76.431 Y59.104 E34.11094
G1 X75.095 Y59.861 E34.2948
G1 X74.204 Y60.474 E34.4243
G1 X73.443 Y61.083 E34.541
G1 X72.484 Y61.964 E34.69693
G1 X71.425 Y63.128 E34.88535
G1 X70.751 Y64.014 E35.01865
G0 F5400 X71.059 Y64.271
G1 F675 X136.699 Y129.911 E46.13366
G0 F5400 X136.696 Y132.17
G1 F675 X70.2 Y65.675 E57.39354
G0 F5400 X69.462 Y67.199
G1 F675 X136.528 Y134.265 E68.75003
G0 F5400 X136.119 Y136.119
G1 F675 X68.88 Y68.88 E80.13581
G0 F5400 X68.471 Y70.734
G1 F675 X135.536 Y137.798 E91.49204
G0 F5400 X134.798 Y139.324
G1 F675 X68.302 Y72.828 E102.752
G0 F5400 X68.3 Y75.088
G1 F675 X133.939 Y140.727 E113.86685
G0 F5400 X132.933 Y141.984
G1 F675 X68.3 Y77.351 E124.81135
G0 F5400 X68.3 Y79.613
G1 F675 X131.818 Y143.132 E135.56712
G0 F5400 X130.596 Y144.172
G1 F675 X68.3 Y81.876 E146.11589
G0 F5400 X68.3 Y84.139
G1 F675 X129.224 Y145.063 E156.43233
G0 F5400 X127.735 Y145.837
G1 F675 X68.3 Y86.402 E166.49663
G0 F5400 X68.3 Y88.665
G1 F675 X126.107 Y146.472 E176.28527
G0 F5400 X124.3 Y146.927
G1 F675 X68.3 Y90.928 E185.76783
G0 F5400 X68.3 Y93.191
G1 F675 X122.276 Y147.166 E194.90766
G0 F5400 X120.045 Y147.198
G1 F675 X68.3 Y95.453 E203.66979
G0 F5400 X68.301 Y97.717
G1 F675 X117.782 Y147.198 E212.04856
G0 F5400 X115.52 Y147.198
G1 F675 X68.301 Y99.979 E220.04429
G0 F5400 X68.301 Y102.242
G1 F675 X113.257 Y147.198 E227.65682
G0 F5400 X110.994 Y147.198
G1 F675 X68.301 Y104.505 E234.88615
G0 F5400 X68.301 Y106.768
G1 F675 X108.731 Y147.198 E241.73229
G0 F5400 X106.469 Y147.198
G1 F675 X68.302 Y109.031 E248.19522
G0 F5400 X68.302 Y111.294
G1 F675 X104.206 Y147.198 E254.27495
G0 F5400 X101.943 Y147.198
G1 F675 X68.302 Y113.557 E259.97148
G0 F5400 X68.302 Y115.819
G1 F675 X99.68 Y147.198 E265.28489
G0 F5400 X97.418 Y147.198
G1 F675 X68.302 Y118.082 E270.21519
G0 F5400 X68.302 Y120.346
G1 F675 X95.155 Y147.198 E274.7622
G0 F5400 X92.892 Y147.198
G1 F675 X68.302 Y122.608 E278.9261
G0 F5400 X68.302 Y124.871
G1 F675 X90.629 Y147.198 E282.7068
G0 F5400 X88.367 Y147.198
G1 F675 X68.302 Y127.134 E286.10438
G0 F5400 X68.302 Y129.397
G1 F675 X86.104 Y147.198 E289.11876
G0 F5400 X83.841 Y147.198
G1 F675 X68.302 Y131.659 E291.75003
G0 F5400 X68.446 Y134.066
G1 F675 X81.438 Y147.057 E293.94991
G0 F5400 X78.438 Y146.32
G1 F675 X69.172 Y137.054 E295.51895
G0 F5400 X136.699 Y127.648
G1 F675 X72.066 Y63.015 E306.46345
G0 F5400 X73.18 Y61.866
G1 F675 X137.042 Y125.729 E317.27748
G0 F5400 X137.673 Y124.097
G1 F675 X74.403 Y60.826 E327.99126
G0 F5400 X75.774 Y59.935
G1 F675 X138.157 Y122.318 E338.55476
G0 F5400 X138.417 Y120.315
G1 F675 X77.263 Y59.161 E348.91015
G0 F5400 X78.891 Y58.527
G1 F675 X138.447 Y118.083 E358.99494
G0 F5400 X138.447 Y115.82
G1 F675 X80.699 Y58.071 E368.77366
G0 F5400 X82.723 Y57.833
G1 F675 X138.418 Y113.528 E378.20466
G0 F5400 X138.027 Y110.874
G1 F675 X84.953 Y57.801 E387.19176
G0 F5400 X87.216 Y57.801
G1 F675 X136.86 Y107.444 E395.59804
G0 F5400 X136.7 Y105.021
G1 F675 X89.479 Y57.801 E403.59402
G0 F5400 X91.742 Y57.801
G1 F675 X136.7 Y102.758 E411.20681
G0 F5400 X136.7 Y100.496
G1 F675 X94.004 Y57.801 E418.43657
G0 F5400 X96.267 Y57.801
G1 F675 X136.7 Y98.233 E425.28312
G0 F5400 X136.7 Y95.97
G1 F675 X98.53 Y57.801 E431.74648
G0 F5400 X100.793 Y57.801
G1 F675 X136.7 Y93.707 E437.82663
G0 F5400 X136.7 Y91.445
G1 F675 X103.055 Y57.801 E443.52375
G0 F5400 X105.318 Y57.801
G1 F675 X136.7 Y89.182 E448.83768
G0 F5400 X136.7 Y86.919
G1 F675 X107.581 Y57.801 E453.7684
G0 F5400 X109.844 Y57.801
G1 F675 X136.7 Y84.656 E458.31592
G0 F5400 X136.7 Y82.394
G1 F675 X112.106 Y57.801 E462.48041
G0 F5400 X114.369 Y57.801
G1 F675 X136.7 Y80.131 E466.2617
G0 F5400 X136.7 Y77.868
G1 F675 X116.632 Y57.801 E469.65979
G0 F5400 X118.895 Y57.801
G1 F675 X136.7 Y75.605 E472.67468
G0 F5400 X136.7 Y73.343
G1 F675 X121.157 Y57.801 E475.30653
G0 F5400 X123.56 Y57.941
G1 F675 X136.554 Y70.934 E477.50676
G0 F5400 X135.823 Y67.941
G1 F675 X126.56 Y58.678 E479.07529
G0 F600 X126.56 Y58.678 Z0.51
G0 F5400 X75.283 Y60.213
;TIME_ELAPSED:362.649104
;LAYER:-7
;TYPE:SUPPORT
G1 F675 X74.446 Y60.79 E479.12601
G1 X73.558 Y61.509 E479.18302
G1 X72.75 Y62.26 E479.23805
G1 X71.735 Y63.377 E479.31335
G1 X71.081 Y64.237 E479.36725
G1 X70.499 Y65.137 E479.42072
G1 X70.34 Y65.423 E479.43705
G1 X75.902 Y59.862 E479.82944
G1 X76.615 Y59.457 E479.87035
G1 X77.628 Y58.986 E479.92609
G1 X78.542 Y58.636 E479.97491
G1 X69.114 Y68.063 E480.64008
G1 X68.718 Y69.454 E480.71223
G1 X68.618 Y69.974 E480.73865
G1 X80.477 Y58.114 E481.5754
G1 X81.003 Y58.006 E481.60219
G1 X82.149 Y57.857 E481.65985
G1 X68.346 Y71.66 E482.63372
G1 X68.292 Y73.129 E482.70706
G1 X83.621 Y57.799 E483.78864
G1 X85.035 Y57.799 E483.85918
G1 X68.3 Y74.535 E485.03996
G1 X68.3 Y75.949 E485.11051
G1 X86.45 Y57.799 E486.39109
G1 X87.864 Y57.799 E486.46163
G1 X68.3 Y77.363 E487.84198
G1 X68.3 Y78.778 E487.91257
G1 X89.278 Y57.799 E489.39272
G1 X90.692 Y57.799 E489.46327
G1 X68.3 Y80.192 E491.04318
G1 X68.3 Y81.606 E491.11372
G1 X92.107 Y57.799 E492.79343
G1 X93.521 Y57.799 E492.86398
G1 X68.3 Y83.02 E494.64346
G1 X68.3 Y84.434 E494.714
G1 X94.935 Y57.799 E496.59324
G1 X96.349 Y57.799 E496.66379
G1 X68.3 Y85.849 E498.64283
G1 X68.3 Y87.263 E498.71338
G1 X97.763 Y57.799 E500.79219
G1 X99.178 Y57.799 E500.86278
G1 X68.3 Y88.677 E503.04139
G1 X68.3 Y90.091 E503.11194
G1 X100.592 Y57.799 E505.39031
G1 X102.006 Y57.799 E505.46086
G1 X68.3 Y91.505 E507.839
G1 X68.3 Y92.92 E507.90959
G1 X103.42 Y57.8 E510.3875
G1 X104.834 Y57.8 E510.45804
G1 X68.3 Y94.334 E513.03571
G1 X68.3 Y95.748 E513.10626
G1 X106.248 Y57.8 E515.78369
G1 X107.662 Y57.8 E515.85424
G1 X68.3 Y97.162 E518.63144
G1 X68.3 Y98.577 E518.70203
G1 X109.076 Y57.8 E521.57904
G1 X110.491 Y57.8 E521.64963
G1 X68.3 Y99.991 E524.62643
G1 X68.3 Y101.405 E524.69698
G1 X111.905 Y57.8 E527.77355
G1 X113.319 Y57.8 E527.84409
G1 X68.3 Y102.819 E531.02043
G1 X68.3 Y104.233 E531.09097
G1 X114.733 Y57.8 E534.36707
G1 X116.147 Y57.8 E534.43761
G1 X68.3 Y105.648 E537.81351
G1 X68.3 Y107.062 E537.88406
G1 X117.562 Y57.8 E541.35976
G1 X118.976 Y57.8 E541.4303
G1 X68.3 Y108.476 E545.00577
G1 X68.3 Y109.89 E545.07631
G1 X120.39 Y57.8 E548.75154
G1 X121.803 Y57.801 E548.82204
G1 X68.3 Y111.304 E552.59697
G1 X68.3 Y112.719 E552.66756
G1 X123.127 Y57.892 E556.5359
G1 X123.671 Y57.953 E556.56321
G1 X124.348 Y58.084 E556.59761
G1 X68.3 Y114.133 E560.55214
G1 X68.3 Y115.547 E560.62268
G1 X125.499 Y58.348 E564.65838
G1 X126.217 Y58.554 E564.69565
G1 X126.577 Y58.684 E564.71474
G1 X68.3 Y116.961 E568.8265
G1 X68.3 Y118.376 E568.89709
G1 X127.583 Y59.092 E573.07987
G1 X128.554 Y59.536 E573.13313
G1 X68.3 Y119.79 E577.38438
G1 X68.3 Y121.204 E577.45492
G1 X129.448 Y60.055 E581.76928
G1 X130.306 Y60.612 E581.82032
G1 X68.3 Y122.618 E586.19517
G1 X68.3 Y124.032 E586.26572
G1 X131.107 Y61.225 E590.69709
G1 X131.849 Y61.897 E590.74703
G1 X68.3 Y125.447 E595.2308
G1 X68.3 Y126.861 E595.30134
G1 X132.561 Y62.6 E599.8353
G1 X132.989 Y63.06 E599.86665
G1 X133.224 Y63.351 E599.88531
G1 X68.3 Y128.275 E604.46605
G1 X68.3 Y129.689 E604.53659
G1 X133.844 Y64.145 E609.16108
G1 X134.422 Y64.981 E609.21178
G1 X68.3 Y131.103 E613.87705
G1 X68.3 Y132.006 E613.9221
G1 X68.321 Y132.496 E613.94657
G1 X134.933 Y65.884 E618.6464
G1 X135.382 Y66.849 E618.6995
G1 X68.413 Y133.818 E623.42453
G1 X68.491 Y134.426 E623.45511
G1 X68.616 Y135.029 E623.48583
G1 X135.791 Y67.855 E628.22536
G1 X135.904 Y68.15 E628.24112
G1 X136.127 Y68.933 E628.28173
G1 X68.899 Y136.161 E633.02503
G1 X69.093 Y136.844 E633.06045
G1 X69.242 Y137.232 E633.08119
G1 X136.403 Y70.072 E637.81973
G1 X136.506 Y70.569 E637.84505
G1 X136.598 Y71.291 E637.88136
G1 X69.655 Y138.233 E642.60452
G1 X69.954 Y138.879 E642.64003
G1 X70.125 Y139.178 E642.65721
G1 X136.699 Y72.604 E647.35437
G1 X136.699 Y74.018 E647.42491
G1 X70.627 Y140.089 E652.08662
G1 X71.204 Y140.927 E652.13738
G1 X136.699 Y75.432 E656.7584
G1 X136.699 Y76.846 E656.82895
G1 X71.816 Y141.73 E661.40683
G1 X72.497 Y142.462 E661.45671
G1 X136.699 Y78.261 E665.98647
G1 X136.699 Y79.675 E666.05701
G1 X73.213 Y143.16 E670.53626
G1 X73.954 Y143.834 E670.58623
G1 X136.699 Y81.089 E675.01323
G1 X136.699 Y82.503 E675.08378
G1 X74.767 Y144.435 E679.45341
G1 X75.625 Y144.991 E679.50442
G1 X136.699 Y83.918 E683.81349
G1 X136.699 Y85.332 E683.88403
G1 X76.533 Y145.497 E688.12903
G1 X77.501 Y145.944 E688.18223
G1 X136.699 Y86.746 E692.35897
G1 X136.699 Y88.16 E692.42951
G1 X78.496 Y146.363 E696.53605
G1 X79.595 Y146.678 E696.59308
G1 X136.699 Y89.574 E700.62208
G1 X136.699 Y90.989 E700.69267
G1 X80.753 Y146.934 E704.63993
G1 X81.327 Y147.046 E704.66911
G1 X81.982 Y147.119 E704.70199
G1 X136.699 Y92.403 E708.56253
G1 X136.699 Y93.817 E708.63308
G1 X83.321 Y147.195 E712.39918
G1 X84.731 Y147.199 E712.46953
G1 X136.699 Y95.231 E716.13615
G1 X136.699 Y96.645 E716.2067
G1 X86.146 Y147.199 E719.77352
G1 X87.56 Y147.199 E719.84406
G1 X136.699 Y98.06 E723.31109
G1 X136.699 Y99.474 E723.38163
G1 X88.974 Y147.199 E726.74889
G1 X90.388 Y147.199 E726.81943
G1 X136.699 Y100.888 E730.08692
G1 X136.699 Y102.302 E730.15747
G1 X91.802 Y147.199 E733.32519
G1 X93.217 Y147.199 E733.39579
G1 X136.699 Y103.717 E736.46368
G1 X136.699 Y105.131 E736.53422
G1 X94.631 Y147.199 E739.50235
G1 X96.045 Y147.199 E739.57289
G1 X136.723 Y106.521 E742.44295
G1 X136.743 Y106.833 E742.45854
G1 X136.883 Y107.567 E742.49582
G1 X136.939 Y107.719 E742.5039
G1 X97.459 Y147.199 E745.28943
G1 X98.874 Y147.199 E745.36003
G1 X137.326 Y108.746 E748.07306
G1 X137.713 Y109.774 E748.12786
G1 X100.288 Y147.199 E750.76839
G1 X101.702 Y147.199 E750.83894
G1 X138.029 Y110.872 E753.40201
G1 X138.194 Y111.608 E753.43964
G1 X138.262 Y112.053 E753.46209
G1 X103.115 Y147.199 E755.94187
G1 X104.53 Y147.199 E756.01246
G1 X138.403 Y113.326 E758.40239
G1 X138.447 Y113.95 E758.4336
G1 X138.447 Y114.696 E758.47081
G1 X105.944 Y147.199 E760.76408
G1 X107.358 Y147.199 E760.83462
G1 X138.447 Y116.111 E763.02808
G1 X138.447 Y117.525 E763.09863
G1 X108.772 Y147.199 E765.19232
G1 X110.187 Y147.199 E765.26292
G1 X138.447 Y118.939 E767.25681
G1 X138.447 Y119.475 E767.28356
G1 X138.414 Y120.387 E767.32909
G1 X111.601 Y147.199 E769.22085
G1 X113.015 Y147.199 E769.2914
G1 X138.216 Y121.998 E771.06946
G1 X138.121 Y122.519 E771.09588
G1 X137.78 Y123.849 E771.16438
G1 X114.429 Y147.199 E772.81189
G1 X115.843 Y147.199 E772.88243
G1 X136.903 Y126.14 E774.36829
G1 X136.76 Y126.811 E774.40252
G1 X136.689 Y127.768 E774.4504
G1 X117.258 Y147.199 E775.82136
G1 X118.672 Y147.199 E775.89191
G1 X136.699 Y129.172 E777.16381
G1 X136.699 Y130.587 E777.2344
G1 X120.086 Y147.199 E778.4065
G1 X121.5 Y147.199 E778.47705
G1 X136.699 Y132.001 E779.54939
G1 X136.663 Y133.069 E779.6027
G1 X136.617 Y133.496 E779.62412
G1 X122.987 Y147.127 E780.58583
G1 X123.996 Y146.992 E780.63662
G1 X124.677 Y146.851 E780.67131
G1 X136.35 Y135.178 E781.49491
G1 X136.279 Y135.546 E781.51361
G1 X135.974 Y136.639 E781.57022
G1 X135.787 Y137.155 E781.5976
G1 X126.654 Y146.289 E782.24202
G1 X127.361 Y146.017 E782.27981
G1 X128.383 Y145.543 E782.33602
G1 X129.381 Y144.975 E782.39331
G1 X134.504 Y139.852 E782.75476
G1 X133.926 Y140.746 E782.80787
G1 X133.264 Y141.621 E782.86261
G1 X132.253 Y142.734 E782.93763
G1 X131.439 Y143.488 E782.99298
G1 X130.553 Y144.208 E783.04994
G1 X129.715 Y144.785 E783.1007
G0 F600 X129.715 Y144.785 Z0.61
G0 F5400 X75.018 Y144.597
;TIME_ELAPSED:905.000744
;LAYER:-6
;TYPE:SUPPORT-INTERFACE
G1 F900 X70.886 Y140.466 E783.19787
G1 X71.29 Y141.052 E783.20971
G1 X72.008 Y141.936 E783.22864
G1 X72.764 Y142.75 E783.24712
G1 X73.873 Y143.761 E783.27208
G1 X74.753 Y144.425 E783.29041
G1 X75.637 Y144.998 E783.30793
G1 X76.42 Y145.434 E783.32283
G1 X70.031 Y139.045 E783.47309
G1 X69.541 Y137.989 E783.49245
G1 X77.491 Y145.939 E783.67942
G1 X77.896 Y146.125 E783.68683
G1 X78.438 Y146.32 E783.69641
G1 X69.146 Y137.029 E783.91494
G1 X68.918 Y136.235 E783.92867
G1 X79.267 Y146.583 E784.17205
G1 X80.06 Y146.811 E784.18578
G1 X68.703 Y135.454 E784.45288
G1 X68.556 Y134.742 E784.46497
G1 X80.748 Y146.933 E784.75169
G1 X81.45 Y147.07 E784.76359
G1 X68.445 Y134.064 E785.06945
G1 X68.361 Y133.415 E785.08034
G1 X82.075 Y147.129 E785.40287
G1 X82.681 Y147.169 E785.41297
G1 X68.334 Y132.822 E785.75039
G1 X68.309 Y132.231 E785.76023
G1 X83.27 Y147.192 E786.11209
G1 X83.841 Y147.198 E786.12158
G1 X68.3 Y131.656 E786.48709
G1 X68.3 Y131.091 E786.49649
G1 X84.407 Y147.198 E786.8753
G1 X84.973 Y147.198 E786.88472
G1 X68.3 Y130.525 E787.27684
G1 X68.3 Y129.959 E787.28625
G1 X85.538 Y147.198 E787.69167
G1 X86.104 Y147.198 E787.70109
G1 X68.3 Y129.394 E788.11981
G1 X68.3 Y128.828 E788.12922
G1 X86.67 Y147.198 E788.56126
G1 X87.235 Y147.198 E788.57065
