;FLAVOR:Marlin
;TIME:15924
;Filament used: 6.92332m
;Layer height: 0.1
;MINX:67.9
;MINY:57.401
;MINZ:0.36
;MAXX:138.848
;MAXY:147.6
;MAXZ:20.29
;Generated with Cura_SteamEngine main
M140 S50
M105
M190 S50
M104 S210
M105
M109 S210
M82 ;absolute extrusion mode
G28 ;Home
G1 Z15.0 F6000 ;Move the platform down 15mm
;Prime the extruder
G92 E0
G1 F200 E3
G92 E0
G92 E0
G92 E0
G1 F2700 E-3.5
;LAYER_COUNT:193
;LAYER:-8
M107
G0 F5400 X70.751 Y64.014 Z0.36
;TYPE:SUPPORT-INTERFACE
G1 F2700 E0
G1 F675 X70.193 Y64.866 E0.12195
G1 X69.612 Y65.914 E0.26542
G1 X69 Y67.253 E0.4417
G1 X68.639 Y68.251 E0.56878
G1 X68.321 Y69.415 E0.71326
G1 X68.057 Y70.771 E0.87867
G1 X67.948 Y71.754 E0.99709
G1 X67.9 Y72.903 E1.13479
G1 X67.904 Y132.158 E8.22978
G1 X67.96 Y133.423 E8.38139
G1 X68.097 Y134.487 E8.50984
G1 X68.342 Y135.668 E8.65426
G1 X68.721 Y136.991 E8.81905
G1 X69.062 Y137.891 E8.93428
G1 X69.617 Y139.098 E9.09335
G1 X70.362 Y140.406 E9.27359
G1 X70.969 Y141.29 E9.40199
G1 X71.583 Y142.057 E9.51963
G1 X72.463 Y143.016 E9.67547
G1 X73.618 Y144.067 E9.86245
G1 X74.53 Y144.759 E9.99953
G1 X75.357 Y145.301 E10.11792
G1 X76.403 Y145.882 E10.26119
G1 X77.752 Y146.499 E10.43881
G1 X78.751 Y146.861 E10.56604
G1 X79.915 Y147.179 E10.71052
G1 X81.271 Y147.443 E10.87593
G1 X82.254 Y147.552 E10.99435
G1 X83.385 Y147.599 E11.12989
G1 X121.534 Y147.6 E15.69772
G1 X122.923 Y147.54 E15.86419
G1 X123.987 Y147.403 E15.99264
G1 X125.168 Y147.158 E16.13706
G1 X126.491 Y146.779 E16.30184
G1 X127.391 Y146.438 E16.41708
G1 X128.569 Y145.896 E16.57234
G1 X129.905 Y145.139 E16.75621
G1 X130.796 Y144.526 E16.8857
G1 X131.557 Y143.917 E17.00241
G1 X132.516 Y143.037 E17.15825
G1 X133.571 Y141.877 E17.346
G1 X134.259 Y140.97 E17.48231
G1 X134.807 Y140.134 E17.602
G1 X135.388 Y139.086 E17.74547
G1 X136.002 Y137.743 E17.92229
G1 X136.365 Y136.74 E18.05001
G1 X136.679 Y135.586 E18.19321
G1 X136.943 Y134.229 E18.35874
G1 X137.052 Y133.246 E18.47716
G1 X137.1 Y132.095 E18.61509
G1 X137.101 Y127.635 E19.14912
G1 X137.157 Y126.881 E19.23965
G1 X137.3 Y126.204 E19.3225
G1 X137.53 Y125.553 E19.40517
G1 X137.889 Y124.707 E19.51521
G1 X138.227 Y123.711 E19.64115
G1 X138.512 Y122.601 E19.77837
G1 X138.675 Y121.72 E19.88564
G1 X138.8 Y120.644 E20.01535
G1 X138.848 Y119.495 E20.15304
G1 X138.848 Y114.436 E20.75879
G1 X138.84 Y113.818 E20.83279
G1 X138.759 Y112.66 E20.97179
G1 X138.602 Y111.6 E21.10009
G1 X138.317 Y110.329 E21.25606
G1 X138.265 Y109.45 E21.36149
G1 X138.31 Y108.789 E21.44082
G1 X138.44 Y108.13 E21.52125
G1 X138.511 Y107.835 E21.55758
G1 X138.69 Y106.866 E21.67556
G1 X138.811 Y105.728 E21.81259
G1 X138.848 Y104.727 E21.93253
G1 X138.847 Y99.147 E22.60066
G1 X138.759 Y97.888 E22.75178
G1 X138.615 Y96.919 E22.86908
G1 X138.369 Y95.793 E23.00708
G1 X138.065 Y94.78 E23.13372
G1 X137.71 Y93.856 E23.25224
G1 X137.597 Y93.595 E23.28629
G1 X137.275 Y92.704 E23.39973
G1 X137.142 Y92.009 E23.48446
G1 X137.1 Y91.359 E23.56245
G1 X137.1 Y72.966 E25.76476
G1 X137.04 Y71.58 E25.93087
G1 X136.903 Y70.507 E26.06039
G1 X136.658 Y69.332 E26.20411
G1 X136.278 Y68.005 E26.36938
G1 X135.879 Y66.967 E26.50254
G1 X135.394 Y65.926 E26.64005
G1 X134.636 Y64.59 E26.82397
G1 X134.026 Y63.704 E26.95277
G1 X133.417 Y62.943 E27.06947
G1 X132.523 Y61.969 E27.22777
G1 X131.377 Y60.929 E27.41307
G1 X130.47 Y60.24 E27.54945
G1 X129.644 Y59.699 E27.66768
G1 X128.587 Y59.113 E27.81239
G1 X127.259 Y58.505 E27.98727
G1 X126.328 Y58.168 E28.10583
G1 X125.084 Y57.821 E28.26047
G1 X123.732 Y57.557 E28.42541
G1 X122.748 Y57.448 E28.54395
G1 X121.615 Y57.401 E28.67973
G1 X83.466 Y57.401 E33.24755
G1 X82.077 Y57.46 E33.41402
G1 X81.013 Y57.597 E33.54247
G1 X79.832 Y57.842 E33.68689
G1 X78.509 Y58.221 E33.85167
G1 X77.609 Y58.562 E33.96691
G1 X76.431 Y59.104 E34.12217
G1 X75.095 Y59.861 E34.30604
G1 X74.204 Y60.474 E34.43553
G1 X73.443 Y61.083 E34.55224
G1 X72.484 Y61.964 E34.70816
G1 X71.425 Y63.128 E34.89659
G1 X70.751 Y64.014 E35.02988
G0 F5400 X71.059 Y64.271
G1 F675 X136.699 Y129.911 E46.1449
G0 F5400 X136.696 Y132.17
G1 F675 X70.2 Y65.675 E57.40478
G0 F5400 X69.462 Y67.199
G1 F675 X136.528 Y134.265 E68.76126
G0 F5400 X136.119 Y136.119
G1 F675 X68.88 Y68.88 E80.14704
G0 F5400 X68.471 Y70.734
G1 F675 X135.536 Y137.798 E91.50327
G0 F5400 X134.798 Y139.324
G1 F675 X68.302 Y72.828 E102.76323
G0 F5400 X68.3 Y75.088
G1 F675 X133.939 Y140.727 E113.87808
G0 F5400 X132.933 Y141.984
G1 F675 X68.3 Y77.351 E124.82258
G0 F5400 X68.3 Y79.613
G1 F675 X131.818 Y143.132 E135.57835
G0 F5400 X130.596 Y144.172
G1 F675 X68.3 Y81.876 E146.12712
G0 F5400 X68.3 Y84.139
G1 F675 X129.224 Y145.063 E156.44356
G0 F5400 X127.735 Y145.837
G1 F675 X68.3 Y86.402 E166.50787
G0 F5400 X68.3 Y88.665
G1 F675 X126.107 Y146.472 E176.2965
G0 F5400 X124.3 Y146.927
G1 F675 X68.3 Y90.928 E185.77906
G0 F5400 X68.3 Y93.191
G1 F675 X122.276 Y147.166 E194.91889
G0 F5400 X120.045 Y147.198
G1 F675 X68.3 Y95.453 E203.68102
G0 F5400 X68.301 Y97.717
G1 F675 X117.782 Y147.198 E212.05979
G0 F5400 X115.52 Y147.198
G1 F675 X68.301 Y99.979 E220.05552
G0 F5400 X68.301 Y102.242
G1 F675 X113.257 Y147.198 E227.66805
G0 F5400 X110.994 Y147.198
G1 F675 X68.301 Y104.505 E234.89739
G0 F5400 X68.301 Y106.768
G1 F675 X108.731 Y147.198 E241.74352
G0 F5400 X106.469 Y147.198
G1 F675 X68.302 Y109.031 E248.20645
G0 F5400 X68.302 Y111.294
G1 F675 X104.206 Y147.198 E254.28618
G0 F5400 X101.943 Y147.198
G1 F675 X68.302 Y113.557 E259.98271
G0 F5400 X68.302 Y115.819
G1 F675 X99.68 Y147.198 E265.29612
G0 F5400 X97.418 Y147.198
G1 F675 X68.302 Y118.082 E270.22642
G0 F5400 X68.302 Y120.346
G1 F675 X95.155 Y147.198 E274.77344
G0 F5400 X92.892 Y147.198
G1 F675 X68.302 Y122.608 E278.93733
G0 F5400 X68.302 Y124.871
G1 F675 X90.629 Y147.198 E282.71803
G0 F5400 X88.367 Y147.198
G1 F675 X68.302 Y127.134 E286.11561
G0 F5400 X68.302 Y129.397
G1 F675 X86.104 Y147.198 E289.12999
G0 F5400 X83.841 Y147.198
G1 F675 X68.302 Y131.659 E291.76126
G0 F5400 X68.446 Y134.066
G1 F675 X81.438 Y147.057 E293.96115
G0 F5400 X78.438 Y146.32
G1 F675 X69.172 Y137.054 E295.53019
G0 F5400 X136.699 Y127.648
G1 F675 X72.066 Y63.015 E306.47468
G0 F5400 X73.18 Y61.866
G1 F675 X137.043 Y125.729 E317.28879
G0 F5400 X137.672 Y124.096
G1 F675 X74.403 Y60.826 E328.00241
G0 F5400 X75.774 Y59.935
G1 F675 X138.157 Y122.318 E338.5659
G0 F5400 X138.413 Y120.311
G1 F675 X77.263 Y59.161 E348.92061
G0 F5400 X78.891 Y58.527
G1 F675 X138.447 Y118.082 E359.00532
G0 F5400 X138.447 Y115.819
G1 F675 X80.699 Y58.071 E368.78396
G0 F5400 X82.723 Y57.833
G1 F675 X138.418 Y113.528 E378.21496
G0 F5400 X138.03 Y110.877
G1 F675 X84.953 Y57.801 E387.20256
G0 F5400 X87.216 Y57.801
G1 F675 X137.952 Y108.536 E395.79376
G0 F5400 X138.312 Y106.633
G1 F675 X89.479 Y57.801 E404.06271
G0 F5400 X91.742 Y57.801
G1 F675 X138.447 Y104.506 E411.9714
G0 F5400 X138.447 Y102.243
G1 F675 X94.004 Y57.801 E419.49699
G0 F5400 X96.267 Y57.801
G1 F675 X138.447 Y99.98 E426.63936
G0 F5400 X138.308 Y97.579
G1 F675 X98.53 Y57.801 E433.37509
G0 F5400 X100.793 Y57.801
G1 F675 X137.551 Y94.559 E439.59943
G0 F5400 X136.704 Y91.449
G1 F675 X103.055 Y57.801 E445.29723
G0 F5400 X105.318 Y57.801
G1 F675 X136.7 Y89.182 E450.61115
G0 F5400 X136.7 Y86.919
G1 F675 X107.581 Y57.801 E455.54188
G0 F5400 X109.844 Y57.801
G1 F675 X136.7 Y84.656 E460.0894
G0 F5400 X136.7 Y82.394
G1 F675 X112.106 Y57.801 E464.25389
G0 F5400 X114.369 Y57.801
G1 F675 X136.7 Y80.131 E468.03518
G0 F5400 X136.7 Y77.868
G1 F675 X116.632 Y57.801 E471.43327
G0 F5400 X118.895 Y57.801
G1 F675 X136.7 Y75.605 E474.44816
G0 F5400 X136.7 Y73.343
G1 F675 X121.157 Y57.801 E477.08001
G0 F5400 X123.56 Y57.941
G1 F675 X136.554 Y70.934 E479.28024
G0 F5400 X135.823 Y67.941
G1 F675 X126.56 Y58.678 E480.84877
G0 F600 X126.56 Y58.678 Z0.51
G0 F5400 X75.283 Y60.213
;TIME_ELAPSED:363.972484
;LAYER:-7
;TYPE:SUPPORT
G1 F675 X74.446 Y60.79 E480.89949
G1 X73.558 Y61.509 E480.9565
G1 X72.75 Y62.26 E481.01153
G1 X71.735 Y63.377 E481.08683
G1 X71.081 Y64.237 E481.14073
G1 X70.499 Y65.137 E481.1942
G1 X70.34 Y65.423 E481.21053
G1 X75.902 Y59.862 E481.60292
G1 X76.615 Y59.457 E481.64383
G1 X77.628 Y58.986 E481.69957
G1 X78.542 Y58.636 E481.74839
G1 X69.114 Y68.063 E482.41356
G1 X68.718 Y69.454 E482.48571
G1 X68.618 Y69.974 E482.51213
G1 X80.477 Y58.114 E483.34888
G1 X81.003 Y58.006 E483.37567
G1 X82.149 Y57.857 E483.43333
G1 X68.346 Y71.66 E484.4072
G1 X68.292 Y73.129 E484.48054
G1 X83.621 Y57.799 E485.56212
G1 X85.035 Y57.799 E485.63266
G1 X68.3 Y74.535 E486.81344
G1 X68.3 Y75.949 E486.88399
G1 X86.45 Y57.799 E488.16457
G1 X87.864 Y57.799 E488.23511
G1 X68.3 Y77.363 E489.61546
G1 X68.3 Y78.778 E489.68605
G1 X89.278 Y57.799 E491.1662
G1 X90.692 Y57.799 E491.23675
G1 X68.3 Y80.192 E492.81666
G1 X68.3 Y81.606 E492.8872
G1 X92.107 Y57.799 E494.56691
G1 X93.521 Y57.799 E494.63746
G1 X68.3 Y83.02 E496.41694
G1 X68.3 Y84.434 E496.48748
G1 X94.935 Y57.799 E498.36672
G1 X96.349 Y57.799 E498.43727
G1 X68.3 Y85.849 E500.41631
G1 X68.3 Y87.263 E500.48686
G1 X97.763 Y57.799 E502.56567
G1 X99.178 Y57.799 E502.63626
G1 X68.3 Y88.677 E504.81487
G1 X68.3 Y90.091 E504.88542
G1 X100.592 Y57.799 E507.16379
G1 X102.006 Y57.799 E507.23434
G1 X68.3 Y91.505 E509.61248
G1 X68.3 Y92.92 E509.68307
G1 X103.42 Y57.8 E512.16098
G1 X104.834 Y57.8 E512.23152
G1 X68.3 Y94.334 E514.80919
G1 X68.3 Y95.748 E514.87974
G1 X106.248 Y57.8 E517.55717
G1 X107.662 Y57.8 E517.62772
G1 X68.3 Y97.162 E520.40492
G1 X68.3 Y98.577 E520.47551
G1 X109.076 Y57.8 E523.35252
G1 X110.491 Y57.8 E523.42311
G1 X68.3 Y99.991 E526.39991
G1 X68.3 Y101.405 E526.47046
G1 X111.905 Y57.8 E529.54703
G1 X113.319 Y57.8 E529.61757
G1 X68.3 Y102.819 E532.79391
G1 X68.3 Y104.233 E532.86445
G1 X114.733 Y57.8 E536.14055
G1 X116.147 Y57.8 E536.21109
G1 X68.3 Y105.648 E539.58699
G1 X68.3 Y107.062 E539.65754
G1 X117.562 Y57.8 E543.13324
G1 X118.976 Y57.8 E543.20378
G1 X68.3 Y108.476 E546.77925
G1 X68.3 Y109.89 E546.84979
G1 X120.39 Y57.8 E550.52502
G1 X121.803 Y57.801 E550.59552
G1 X68.3 Y111.304 E554.37044
G1 X68.3 Y112.719 E554.44104
G1 X123.127 Y57.892 E558.30938
G1 X123.671 Y57.953 E558.33669
G1 X124.348 Y58.084 E558.37109
G1 X68.3 Y114.133 E562.32562
G1 X68.3 Y115.547 E562.39616
G1 X125.499 Y58.348 E566.43186
G1 X126.217 Y58.554 E566.46913
G1 X126.577 Y58.684 E566.48822
G1 X68.3 Y116.961 E570.59998
G1 X68.3 Y118.376 E570.67057
G1 X127.583 Y59.092 E574.85335
G1 X128.554 Y59.536 E574.90661
G1 X68.3 Y119.79 E579.15786
G1 X68.3 Y121.204 E579.2284
G1 X129.448 Y60.055 E583.54276
G1 X130.306 Y60.612 E583.59379
G1 X68.3 Y122.618 E587.96865
G1 X68.3 Y124.032 E588.0392
G1 X131.107 Y61.225 E592.47057
G1 X131.849 Y61.897 E592.52051
G1 X68.3 Y125.447 E597.00428
G1 X68.3 Y126.861 E597.07482
G1 X132.561 Y62.6 E601.60878
G1 X132.989 Y63.06 E601.64013
G1 X133.224 Y63.351 E601.65879
G1 X68.3 Y128.275 E606.23953
G1 X68.3 Y129.689 E606.31007
G1 X133.844 Y64.145 E610.93456
G1 X134.422 Y64.981 E610.98526
G1 X68.3 Y131.103 E615.65053
G1 X68.3 Y132.006 E615.69558
G1 X68.321 Y132.496 E615.72005
G1 X134.933 Y65.884 E620.41988
G1 X135.382 Y66.849 E620.47298
G1 X68.413 Y133.818 E625.19801
G1 X68.491 Y134.426 E625.22859
G1 X68.616 Y135.029 E625.25931
G1 X135.791 Y67.855 E629.99884
G1 X135.904 Y68.15 E630.0146
G1 X136.127 Y68.933 E630.05521
G1 X68.899 Y136.161 E634.79851
G1 X69.093 Y136.844 E634.83393
G1 X69.242 Y137.232 E634.85467
G1 X136.403 Y70.072 E639.59321
G1 X136.506 Y70.569 E639.61853
G1 X136.598 Y71.291 E639.65484
G1 X69.655 Y138.233 E644.378
G1 X69.954 Y138.879 E644.41351
G1 X70.125 Y139.178 E644.43069
G1 X136.699 Y72.604 E649.12785
G1 X136.699 Y74.018 E649.19839
G1 X70.627 Y140.089 E653.8601
G1 X71.204 Y140.927 E653.91086
G1 X136.699 Y75.432 E658.53188
G1 X136.699 Y76.846 E658.60243
G1 X71.816 Y141.73 E663.18031
G1 X72.497 Y142.462 E663.23019
G1 X136.699 Y78.261 E667.75995
G1 X136.699 Y79.675 E667.83049
G1 X73.213 Y143.16 E672.30974
G1 X73.954 Y143.834 E672.35971
G1 X136.699 Y81.089 E676.78671
G1 X136.699 Y82.503 E676.85726
G1 X74.767 Y144.435 E681.22689
G1 X75.625 Y144.991 E681.2779
G1 X136.699 Y83.918 E685.58697
G1 X136.699 Y85.332 E685.65751
G1 X76.533 Y145.497 E689.90251
G1 X77.501 Y145.944 E689.95571
G1 X136.699 Y86.746 E694.13245
G1 X136.699 Y88.16 E694.20299
G1 X78.496 Y146.363 E698.30953
G1 X79.595 Y146.678 E698.36656
G1 X136.699 Y89.574 E702.39556
G1 X136.699 Y90.989 E702.46615
G1 X80.753 Y146.934 E706.41341
G1 X81.327 Y147.046 E706.44259
G1 X81.982 Y147.119 E706.47547
G1 X136.79 Y92.312 E710.34243
G1 X136.884 Y92.797 E710.36708
G1 X137.105 Y93.411 E710.39964
G1 X83.321 Y147.195 E714.19439
G1 X84.731 Y147.199 E714.26473
G1 X137.499 Y94.431 E717.9878
G1 X137.705 Y94.976 E718.01687
G1 X137.856 Y95.489 E718.04355
G1 X86.146 Y147.199 E721.69197
G1 X87.56 Y147.199 E721.76251
G1 X138.158 Y96.6 E725.33251
G1 X138.344 Y97.828 E725.39447
G1 X88.974 Y147.199 E728.87783
G1 X90.388 Y147.199 E728.94837
G1 X138.444 Y99.143 E732.33898
G1 X138.447 Y100.554 E732.40938
G1 X91.802 Y147.199 E735.70044
G1 X93.217 Y147.199 E735.77103
G1 X138.447 Y101.969 E738.96225
G1 X138.447 Y103.383 E739.0328
G1 X94.631 Y147.199 E742.12425
G1 X96.045 Y147.199 E742.1948
G1 X138.443 Y104.801 E745.1862
G1 X138.411 Y105.699 E745.23103
G1 X138.346 Y106.312 E745.26179
G1 X97.459 Y147.199 E748.14659
G1 X98.874 Y147.199 E748.21718
G1 X138.054 Y108.019 E750.98154
G1 X137.911 Y108.741 E751.01826
G1 X137.862 Y109.473 E751.05486
G1 X137.87 Y109.616 E751.06201
G1 X100.288 Y147.199 E753.71366
G1 X101.702 Y147.199 E753.7842
G1 X138.03 Y110.871 E756.34734
G1 X138.19 Y111.589 E756.38404
G1 X138.261 Y112.054 E756.40751
G1 X103.115 Y147.199 E758.88721
G1 X104.53 Y147.199 E758.95781
G1 X138.403 Y113.326 E761.34773
G1 X138.447 Y113.951 E761.37899
G1 X138.447 Y114.696 E761.41616
G1 X105.944 Y147.199 E763.70942
G1 X107.358 Y147.199 E763.77996
G1 X138.447 Y116.111 E765.97343
G1 X138.447 Y117.525 E766.04397
G1 X108.772 Y147.199 E768.13767
G1 X110.187 Y147.199 E768.20826
G1 X138.447 Y118.939 E770.20216
G1 X138.447 Y119.475 E770.2289
G1 X138.414 Y120.387 E770.27443
G1 X111.601 Y147.199 E772.16619
G1 X113.015 Y147.199 E772.23674
G1 X138.216 Y121.998 E774.01481
G1 X138.121 Y122.519 E774.04123
G1 X137.78 Y123.849 E774.10973
G1 X114.429 Y147.199 E775.75723
G1 X115.843 Y147.199 E775.82778
G1 X136.903 Y126.14 E777.31364
G1 X136.76 Y126.811 E777.34787
G1 X136.689 Y127.768 E777.39574
G1 X117.258 Y147.199 E778.7667
G1 X118.672 Y147.199 E778.83725
G1 X136.699 Y129.172 E780.10915
G1 X136.699 Y130.587 E780.17974
G1 X120.086 Y147.199 E781.35185
G1 X121.5 Y147.199 E781.42239
G1 X136.699 Y132.001 E782.49473
G1 X136.663 Y133.069 E782.54804
G1 X136.617 Y133.496 E782.56947
G1 X122.987 Y147.127 E783.53117
G1 X123.996 Y146.992 E783.58196
G1 X124.677 Y146.851 E783.61666
G1 X136.35 Y135.178 E784.44025
G1 X136.279 Y135.546 E784.45895
G1 X135.974 Y136.639 E784.51556
G1 X135.787 Y137.155 E784.54294
G1 X126.654 Y146.289 E785.18736
G1 X127.361 Y146.017 E785.22515
G1 X128.383 Y145.543 E785.28136
G1 X129.381 Y144.975 E785.33865
G1 X134.504 Y139.852 E785.7001
G1 X133.926 Y140.746 E785.75321
G1 X133.264 Y141.621 E785.80795
G1 X132.253 Y142.734 E785.88297
G1 X131.439 Y143.488 E785.93833
G1 X130.553 Y144.208 E785.99528
G1 X129.715 Y144.785 E786.04604
G0 F600 X129.715 Y144.785 Z0.61
G0 F5400 X75.018 Y144.597
;TIME_ELAPSED:908.412027
;LAYER:-6
;TYPE:SUPPORT-INTERFACE
G1 F900 X70.886 Y140.466 E786.14321
G1 X71.29 Y141.052 E786.15505
G1 X72.008 Y141.936 E786.17399
G1 X72.764 Y142.75 E786.19246
G1 X73.873 Y143.761 E786.21742
G1 X74.753 Y144.425 E786.23575
G1 X75.637 Y144.998 E786.25327
G1 X76.42 Y145.434 E786.26817
G1 X70.031 Y139.045 E786.41843
G1 X69.541 Y137.989 E786.43779
G1 X77.491 Y145.939 E786.62476
G1 X77.896 Y146.125 E786.63218
G1 X78.438 Y146.32 E786.64176
G1 X69.146 Y137.029 E786.86028
G1 X68.918 Y136.235 E786.87402
G1 X79.267 Y146.583 E787.1174
G1 X80.06 Y146.811 E787.13112
G1 X68.703 Y135.454 E787.39822
G1 X68.556 Y134.742 E787.41031
G1 X80.748 Y146.933 E787.69703
G1 X81.45 Y147.07 E787.70893
G1 X68.445 Y134.064 E788.0148
G1 X68.361 Y133.415 E788.02568
G1 X82.075 Y147.129 E788.34821
G1 X82.681 Y147.169 E788.35831
G1 X68.334 Y132.822 E788.69573
G1 X68.309 Y132.231 E788.70557
